X:1
T:Heavenly Home, 76.76.77.76
T:Heavenly Home, 76.76.77.76
T:Daniel Brink Towner, 1896
T:Public Domain Courtesy of the Cyber Hymnal™
C:Daniel Brink Towner, 1896
Z:Public Domain
Z:Courtesy of the Cyber Hymnal™
%%score ( 1 2 ) ( 3 4 )
L:1/8
Q:1/4=97
M:3/4
K:Eb
V:1 treble 
V:2 treble 
V:3 bass 
V:4 bass 
V:1
 [B,E]>[EG] | [GB]3 [Ac] [GB]>[EG] | [GB]4 E>[EF] | [EG]4 [B,E]2 | [B,F]2 [B,E]4 | %5
 [B,E]>[EG] [GB]3 [Ac] | [GB]>[EG] [GB]4 | E>[EF] [EG]4 | [B,E]2 [B,F]2 [B,E]2- | %9
 [B,E]2 [EG]>[GB] [Ge]2- | [Ge][GB] [Ac]>[Ac] [GB]2- | [GB]2 [EG]>[EB] [Ec]2- | %12
 [Ec][EB] [DA]>[EG] [DF]2- | [DF]2 [EG]>[GB] [Ge]2- | [Ge][GB] [Ac]>[Ac] [GB]2- | %15
 [GB]2 [B,E]>[EG] [GB]2- | [GB]2 [EG]2 [DF]2 | E4 |] %18
V:2
 x2 | x6 | x4 E3/2 x/ | x6 | x6 | x6 | x6 | E3/2 x9/2 | x6 | x6 | x6 | x6 | x6 | x6 | x6 | x6 | %16
 x6 | E4 |] %18
V:3
 [E,G,]>[E,B,] | [E,E]3 [E,E] [E,E]>[E,B,] | [E,E]4 [E,G,]>[E,A,] | [E,B,]4 [E,G,]2 | %4
 [B,,A,]2 [E,G,]4 | [E,G,]>[E,B,] [E,E]3 [E,E] | [E,E]>[E,B,] [E,E]4 | [E,G,]>[E,A,] [E,B,]4 | %8
 [E,G,]2 [B,,A,]2 [E,G,]2- | [E,G,]2 [E,B,]>[E,B,] [E,B,]2- | [E,B,][E,E] [A,E]>[A,E] [E,E]2- | %11
 [E,E]2 [E,B,]>[G,B,] A,2- | A,[G,B,] [F,B,]>[E,B,] [B,,B,]2- | [B,,B,]2 [E,B,]>[E,B,] [E,B,]2- | %14
 [E,B,][E,E] [A,E]>[A,E] [E,E]2- | [E,E]2 [E,G,]>[E,B,] [E,E]2- | [E,E]2 [E,B,]2 [B,,A,]2 | %17
 [E,G,]4 |] %18
V:4
 x2 | x6 | x6 | x6 | x6 | x6 | x6 | x E,/ x9/2 | x6 | x6 | x6 | x4 A,2- | A, x5 | x6 | x6 | x6 | %16
 x6 | x4 |] %18

